COLOR/action 16/16/pack-less.svg

<svg height="16" width="16" xmlns="http://www.w3.org/2000/svg"><g fill="#c43ac4"><g><path d="m2 2h5v5h-5z"/><path d="m9 2h5v5h-5z"/><path d="m2 9h5v5h-5z"/><path d="m9 9h5v5h-5z"/></g><g><path d="m2 2v.5h5v-.5zm7 0v.5h5v-.5zm-7 7v.5h5v-.5zm7 0v.5h5v-.5z" fill="#fff" opacity=".3"/><path d="m2 6.5v.5h5v-.5zm7 0v.5h5v-.5zm-7 7v.5h5v-.5zm7 0v.5h5v-.5z" fill="#000" opacity=".2"/></g></g></svg>

<?xml version="1.0" encoding="UTF-8" standalone="no"?>
<svg
   xmlns:dc="http://purl.org/dc/elements/1.1/"
   xmlns:cc="http://creativecommons.org/ns#"
   xmlns:rdf="http://www.w3.org/1999/02/22-rdf-syntax-ns#"
   xmlns:svg="http://www.w3.org/2000/svg"
   xmlns="http://www.w3.org/2000/svg"
   xmlns:sodipodi="http://sodipodi.sourceforge.net/DTD/sodipodi-0.dtd"
   xmlns:inkscape="http://www.inkscape.org/namespaces/inkscape"
   height="16"
   width="16"
   version="1.1"
   id="svg12"
   sodipodi:docname="pack-less.svg"
   inkscape:version="0.92.4 (5da689c313, 2019-01-14)">
  <metadata
     id="metadata18">
    <rdf:RDF>
      <cc:Work
         rdf:about="">
        <dc:format>image/svg+xml</dc:format>
        <dc:type
           rdf:resource="http://purl.org/dc/dcmitype/StillImage" />
      </cc:Work>
    </rdf:RDF>
  </metadata>
  <defs
     id="defs16" />
  <sodipodi:namedview
     pagecolor="#ffffff"
     bordercolor="#666666"
     borderopacity="1"
     objecttolerance="10"
     gridtolerance="10"
     guidetolerance="10"
     inkscape:pageopacity="0"
     inkscape:pageshadow="2"
     inkscape:window-width="794"
     inkscape:window-height="480"
     id="namedview14"
     showgrid="false"
     inkscape:zoom="14.75"
     inkscape:cx="8"
     inkscape:cy="8"
     inkscape:window-x="0"
     inkscape:window-y="27"
     inkscape:window-maximized="0"
     inkscape:current-layer="svg12" />
  <g
     id="g10"
     fill="#c43ac4">
    <path
       d="m2 2h5v5h-5z"
       id="path2" />
    <path
       d="m9 2h5v5h-5z"
       id="path4" />
    <path
       d="m2 9h5v5h-5z"
       id="path6" />
    <path
       d="m9 9h5v5h-5z"
       id="path8" />
  </g>
  <g
     id="g846"
     style="fill:#c43ac4">
    <path
       d="M 2 2 L 2 2.5 L 7 2.5 L 7 2 L 2 2 z M 9 2 L 9 2.5 L 14 2.5 L 14 2 L 9 2 z M 2 9 L 2 9.5 L 7 9.5 L 7 9 L 2 9 z M 9 9 L 9 9.5 L 14 9.5 L 14 9 L 9 9 z "
       id="path849"
       style="fill:#ffffff;fill-opacity:1;opacity:0.3" />
    <path
       style="opacity:0.2;fill:#000000;fill-opacity:1"
       id="path854"
       d="M 2,6.5 V 7 H 7 V 6.5 Z m 7,0 V 7 h 5 V 6.5 Z m -7,7 V 14 h 5 v -0.5 z m 7,0 V 14 h 5 v -0.5 z"
       inkscape:connector-curvature="0" />
  </g>
</svg>
